public/images/calendar-icon.svg

<svg fill="none" height="800" viewBox="0 0 24 24" width="800" xmlns="http://www.w3.org/2000/svg"><path d="m20 11h-16m16 0v8c0 1.1046-.8954 2-2 2h-12c-1.10457 0-2-.8954-2-2v-12c0-1.10457.89543-2 2-2h12c1.1046 0 2 .89543 2 2zm-5-8v4m-6-4v4" stroke="#f5f5f7" stroke-linecap="round" stroke-linejoin="round" stroke-width="1.5"/></svg>

<?xml version="1.0" encoding="utf-8"?><!-- Uploaded to: SVG Repo, www.svgrepo.com, Generator: SVG Repo Mixer Tools -->
<svg width="800px" height="800px" viewBox="0 0 24 24" fill="none" xmlns="http://www.w3.org/2000/svg">
<path d="M20 11H4M20 11V19C20 20.1046 19.1046 21 18 21H6C4.89543 21 4 20.1046 4 19V7C4 5.89543 4.89543 5 6 5H18C19.1046 5 20 5.89543 20 7V11ZM15 3V7M9 3V7" stroke="#F5F5F7" stroke-width="1.5" stroke-linecap="round" stroke-linejoin="round"/>
</svg>
